packages/kronos-fna-icons/src/pencil.svg

<?xml version="1.0" encoding="UTF-8"?>
<svg width="20px" height="20px" viewBox="0 0 20 20" version="1.1" xmlns="http://www.w3.org/2000/svg" xmlns:xlink="http://www.w3.org/1999/xlink">
    <!-- Generator: Sketch 50.2 (55047) - http://www.bohemiancoding.com/sketch -->
    <title>pencil</title>
    <desc>Created with Sketch.</desc>
    <defs></defs>
    <g id="pencil" stroke="none" stroke-width="1" fill="none" fill-rule="evenodd">
        <path d="M18.5926156,1.40779198 C16.9533859,-0.231437793 15.7232533,0.0128841487 15.7232533,0.0128841487 L1.14774493,14.586972 L0,19.9989871 L5.41201509,18.8512422 L19.9875235,4.27999526 C19.986103,4.27999526 20.2332659,3.0498627 18.5926156,1.40779198 Z M5.09098743,18.2020845 L3.24578858,18.5998179 C3.06822903,18.2674264 2.85373709,17.9336144 2.46168561,17.5401425 C2.06963412,17.1466705 1.73582216,16.9350195 1.40201021,16.754619 L1.7997436,14.9108407 L2.33384273,14.378162 C2.33384273,14.378162 3.33669907,14.3980487 4.47165972,15.5330093 C5.60519988,16.665129 5.62650703,17.6708263 5.62650703,17.6708263 L5.09098743,18.2020845 Z" id="Shape" fill="#000000" fill-rule="nonzero"></path>
    </g>
</svg>

<svg viewBox="0 0 20 20" xmlns="http://www.w3.org/2000/svg">
    <title>pencil</title>
    <path d="M18.593 1.408C16.954-.231 15.724.013 15.724.013L1.148 14.587 0 19.999l5.412-1.148L19.988 4.28c-.001 0 .246-1.23-1.395-2.872zM5.091 18.202l-1.845.398a4.268 4.268 0 0 0-.784-1.06 4.236 4.236 0 0 0-1.06-.786L1.8 14.91l.534-.533s1.003.02 2.138 1.155c1.134 1.132 1.155 2.138 1.155 2.138l-.536.531v.001z" />
</svg>
